svg/emoji_u2733.svg

<svg enable-background="new 0 0 128 128" viewBox="0 0 128 128" xmlns="http://www.w3.org/2000/svg"><linearGradient id="b" x1="64" x2="64" y1="34.833" y2="112.35" gradientUnits="userSpaceOnUse"><stop stop-color="#40C4FF" offset="0"/><stop stop-color="#3DBCFF" offset=".2048"/><stop stop-color="#37A5FF" offset=".5264"/><stop stop-color="#2B81FF" offset=".9227"/><stop stop-color="#2979FF" offset="1"/></linearGradient><path d="m110.77 23.1-29.1 40.39c-0.43 0.66-0.43 1.51 0 2.17l29.1 42.34c1.17 1.81-0.96 3.94-2.77 2.77l-42.91-28.52c-0.66-0.43-1.51-0.43-2.17 0l-42.92 28.52c-1.81 1.17-3.94-0.96-2.77-2.77l29.09-42.34c0.43-0.66 0.43-1.51 0-2.17l-29.09-40.39c-1.17-1.81 0.96-3.94 2.77-2.77l42.91 26.57c0.66 0.43 1.51 0.43 2.17 0l42.92-26.56c1.81-1.17 3.94 0.95 2.77 2.76z" fill="url(#b)"/><g opacity=".2"><path d="m105.33 25.52-26.09 36.21-0.08 0.12c-1.07 1.65-1.07 3.78 0 5.43l0.02 0.04 0.02 0.03 26.13 38.03-38.62-25.65c-0.81-0.52-1.75-0.8-2.71-0.8s-1.9 0.28-2.75 0.82l-38.59 25.64 26.14-38.03 0.02-0.03 0.02-0.04c1.07-1.65 1.07-3.78 0-5.43l-0.08-0.12-26.09-36.22 38.64 23.92c0.8 0.51 1.73 0.78 2.68 0.78s1.88-0.27 2.68-0.78l38.66-23.92m3.76-5.52c-0.36 0-0.73 0.1-1.09 0.34l-42.91 26.56c-0.33 0.21-0.71 0.32-1.09 0.32s-0.76-0.11-1.09-0.32l-42.91-26.56c-0.36-0.24-0.73-0.34-1.09-0.34-1.44 0-2.61 1.65-1.67 3.1l29.09 40.39c0.43 0.66 0.43 1.51 0 2.17l-29.1 42.34c-0.94 1.45 0.24 3.1 1.67 3.1 0.36 0 0.73-0.1 1.09-0.34l42.91-28.52c0.33-0.21 0.71-0.32 1.09-0.32s0.76 0.11 1.09 0.32l42.92 28.53c0.36 0.23 0.73 0.34 1.09 0.34 1.44 0 2.61-1.65 1.67-3.1l-29.09-42.35c-0.43-0.66-0.43-1.51 0-2.17l29.09-40.39c0.94-1.45-0.23-3.1-1.67-3.1z" fill="#424242"/></g><linearGradient id="a" x1="64" x2="64" y1="-1" y2="126.61" gradientUnits="userSpaceOnUse"><stop stop-color="#84FFFF" offset="0"/><stop stop-color="#79F6FD" offset=".1454"/><stop stop-color="#5ADCF8" offset=".4036"/><stop stop-color="#2AB4F1" offset=".7422"/><stop stop-color="#0091EA" offset="1"/></linearGradient><path d="m65.96 5.58 8.38 46.55c0.17 0.77 0.77 1.37 1.54 1.54l46.55 8.38c2.11 0.45 2.11 3.46 0 3.91l-46.55 8.38c-0.77 0.17-1.37 0.77-1.54 1.54l-8.38 46.55c-0.45 2.11-3.46 2.11-3.91 0l-8.38-46.55c-0.17-0.77-0.77-1.37-1.54-1.54l-46.55-8.38c-2.11-0.45-2.11-3.46 0-3.91l46.55-8.38c0.77-0.17 1.37-0.77 1.54-1.54l8.38-46.55c0.45-2.11 3.45-2.11 3.91 0z" fill="url(#a)"/><g opacity=".2"><path d="m64 11.65 7.38 41.01 0.02 0.1c0.41 1.92 1.92 3.43 3.84 3.84l0.1 0.02 41.01 7.38-41.01 7.38-0.1 0.02c-1.92 0.41-3.43 1.92-3.84 3.84l-0.02 0.1-7.38 41.01-7.38-41.01-0.02-0.1c-0.41-1.92-1.92-3.43-3.84-3.84l-0.1-0.02-41.01-7.38 41.01-7.38 0.1-0.02c1.92-0.41 3.43-1.92 3.84-3.84l0.02-0.1 7.38-41.01m0-7.65c-0.86 0-1.73 0.53-1.96 1.58l-8.38 46.55c-0.17 0.77-0.77 1.37-1.54 1.54l-46.54 8.37c-2.11 0.45-2.11 3.46 0 3.91l46.55 8.38c0.77 0.17 1.37 0.77 1.54 1.54l8.38 46.55c0.23 1.05 1.09 1.58 1.96 1.58 0.86 0 1.73-0.53 1.96-1.58l8.38-46.55c0.17-0.77 0.77-1.37 1.54-1.54l46.55-8.38c2.11-0.45 2.11-3.46 0-3.91l-46.55-8.38c-0.77-0.17-1.37-0.77-1.54-1.54l-8.39-46.54c-0.23-1.05-1.1-1.58-1.96-1.58z" fill="#424242"/></g></svg>

<svg width="128" height="128" style="enable-background:new 0 0 128 128;" xmlns="http://www.w3.org/2000/svg" xmlns:xlink="http://www.w3.org/1999/xlink">
  <g>
    <linearGradient id="SVGID_1_" gradientUnits="userSpaceOnUse" x1="64" x2="64" y1="34.8333" y2="112.3504">
      <stop offset="0" style="stop-color:#40C4FF"/>
      <stop offset="0.2048" style="stop-color:#3DBCFF"/>
      <stop offset="0.5264" style="stop-color:#37A5FF"/>
      <stop offset="0.9227" style="stop-color:#2B81FF"/>
      <stop offset="1" style="stop-color:#2979FF"/>
    </linearGradient>
    <path d="M110.77,23.1L81.67,63.49c-0.43,0.66-0.43,1.51,0,2.17L110.77,108 c1.17,1.81-0.96,3.94-2.77,2.77L65.09,82.25c-0.66-0.43-1.51-0.43-2.17,0L20,110.77c-1.81,1.17-3.94-0.96-2.77-2.77l29.09-42.34 c0.43-0.66,0.43-1.51,0-2.17L17.23,23.1c-1.17-1.81,0.96-3.94,2.77-2.77L62.91,46.9c0.66,0.43,1.51,0.43,2.17,0L108,20.34 C109.81,19.17,111.94,21.29,110.77,23.1z" style="fill:url(#SVGID_1_);"/>
    <g style="opacity:0.2;">
      <path d="M105.33,25.52L79.24,61.73l-0.04,0.06l-0.04,0.06c-1.07,1.65-1.07,3.78,0,5.43l0.02,0.04l0.02,0.03 l26.13,38.03L66.71,79.73c-0.81-0.52-1.75-0.8-2.71-0.8s-1.9,0.28-2.75,0.82l-38.59,25.64L48.8,67.36l0.02-0.03l0.02-0.04 c1.07-1.65,1.07-3.78,0-5.43l-0.04-0.06l-0.04-0.06L22.67,25.52l38.64,23.92c0.8,0.51,1.73,0.78,2.68,0.78 c0.95,0,1.88-0.27,2.68-0.78L105.33,25.52 M109.09,20c-0.36,0-0.73,0.1-1.09,0.34L65.09,46.9c-0.33,0.21-0.71,0.32-1.09,0.32 c-0.38,0-0.76-0.11-1.09-0.32L20,20.34C19.64,20.1,19.27,20,18.91,20c-1.44,0-2.61,1.65-1.67,3.1l29.09,40.39 c0.43,0.66,0.43,1.51,0,2.17L17.23,108c-0.94,1.45,0.24,3.1,1.67,3.1c0.36,0,0.73-0.1,1.09-0.34l42.91-28.52 c0.33-0.21,0.71-0.32,1.09-0.32c0.38,0,0.76,0.11,1.09,0.32L108,110.77c0.36,0.23,0.73,0.34,1.09,0.34c1.44,0,2.61-1.65,1.67-3.1 L81.67,65.66c-0.43-0.66-0.43-1.51,0-2.17l29.09-40.39C111.7,21.65,110.53,20,109.09,20L109.09,20z" style="fill:#424242;"/>
    </g>
    <linearGradient id="SVGID_2_" gradientUnits="userSpaceOnUse" x1="64" x2="64" y1="-1" y2="126.6115">
      <stop offset="0" style="stop-color:#84FFFF"/>
      <stop offset="0.1454" style="stop-color:#79F6FD"/>
      <stop offset="0.4036" style="stop-color:#5ADCF8"/>
      <stop offset="0.7422" style="stop-color:#2AB4F1"/>
      <stop offset="1" style="stop-color:#0091EA"/>
    </linearGradient>
    <path d="M65.96,5.58l8.38,46.55c0.17,0.77,0.77,1.37,1.54,1.54l46.55,8.38 c2.11,0.45,2.11,3.46,0,3.91l-46.55,8.38c-0.77,0.17-1.37,0.77-1.54,1.54l-8.38,46.55c-0.45,2.11-3.46,2.11-3.91,0l-8.38-46.55 c-0.17-0.77-0.77-1.37-1.54-1.54L5.58,65.96c-2.11-0.45-2.11-3.46,0-3.91l46.55-8.38c0.77-0.17,1.37-0.77,1.54-1.54l8.38-46.55 C62.5,3.47,65.5,3.47,65.96,5.58z" style="fill:url(#SVGID_2_);"/>
    <g style="opacity:0.2;">
      <path d="M64,11.65l7.38,41.01l0.01,0.05l0.01,0.05c0.41,1.92,1.92,3.43,3.84,3.84l0.05,0.01l0.05,0.01 L116.35,64l-41.01,7.38l-0.05,0.01l-0.05,0.01c-1.92,0.41-3.43,1.92-3.84,3.84l-0.01,0.05l-0.01,0.05L64,116.35l-7.38-41.01 l-0.01-0.05l-0.01-0.05c-0.41-1.92-1.92-3.43-3.84-3.84l-0.05-0.01l-0.05-0.01L11.65,64l41.01-7.38l0.05-0.01l0.05-0.01 c1.92-0.41,3.43-1.92,3.84-3.84l0.01-0.05l0.01-0.05L64,11.65 M64,4c-0.86,0-1.73,0.53-1.96,1.58l-8.38,46.55 c-0.17,0.77-0.77,1.37-1.54,1.54L5.58,62.04c-2.11,0.45-2.11,3.46,0,3.91l46.55,8.38c0.77,0.17,1.37,0.77,1.54,1.54l8.38,46.55 c0.23,1.05,1.09,1.58,1.96,1.58c0.86,0,1.73-0.53,1.96-1.58l8.38-46.55c0.17-0.77,0.77-1.37,1.54-1.54l46.55-8.38 c2.11-0.45,2.11-3.46,0-3.91l-46.55-8.38c-0.77-0.17-1.37-0.77-1.54-1.54L65.96,5.58C65.73,4.53,64.86,4,64,4L64,4z" style="fill:#424242;"/>
    </g>
  </g>
</svg>
